X:1
T:Louis Waltz
C:Traditional
M:3/4
L:1/8
Q:1/4=138
K:D
ABAG F#2 | D4 F#A | d4 ed | f#gf#e d2 | B4 AG | A2 F#GAB | c#4 B2 | F#4 DF# |
ABAG F#2 | D4 F#A | d4 ed | f#gf#e d2 | B4 AG | A2 F#GAB | c#2B2c#2 | B2A2D2 |]
